selection-search.svg

<svg fill="currentColor" viewBox="0 0 24 24"><path d="M19.27 18.9c.43-.69.68-1.52.68-2.4 0-2.5-2-4.5-4.49-4.5s-4.5 2-4.5 4.5 2 4.5 4.5 4.5c.87 0 1.69-.25 2.38-.68l3.12 3.07L22.35 22zm-3.81.1c-1.39 0-2.5-1.12-2.5-2.5s1.11-2.5 2.5-2.5 2.49 1.12 2.49 2.5-1.11 2.5-2.49 2.5M22 14h-.55c-.33-.81-.83-1.53-1.45-2.14V10h2zM20 4h-3V2h3a2 2 0 0 1 2 2v3h-2zm-6 0h-4V2h4zM4 2h3v2H4v3H2V4a2 2 0 0 1 2-2m8 20h-2v-2c.5.82 1.2 1.5 2 2m-8-2h3v2H4a2 2 0 0 1-2-2v-3h2zm0-6H2v-4h2z"/></svg>

<svg  viewBox="0 0 24 24" fill="currentColor"><path  d="M19.27 18.9C19.7 18.21 19.95 17.38 19.95 16.5C19.95 14 17.95 12 15.46 12S10.96 14 10.96 16.5 12.96 21 15.46 21C16.33 21 17.15 20.75 17.84 20.32L20.96 23.39L22.35 22L19.27 18.9M15.46 19C14.07 19 12.96 17.88 12.96 16.5S14.07 14 15.46 14 17.95 15.12 17.95 16.5 16.84 19 15.46 19M22 14H21.45C21.12 13.19 20.62 12.47 20 11.86V10H22V14M20 4H17V2H20C21.11 2 22 2.9 22 4V7H20V4M14 4H10V2H14V4M4 2H7V4H4V7H2V4C2 2.89 2.9 2 4 2M12 22H10V20C10.5 20.82 11.2 21.5 12 22M4 20H7V22H4C2.9 22 2 21.11 2 20V17H4V20M4 14H2V10H4V14Z"/></svg>
